cssgg/terminal.svg

<svg
  width="24"
  height="24"
  viewBox="0 0 24 24"
  fill="none"
  xmlns="http://www.w3.org/2000/svg"
>
  <path
    d="M5.0333 14.8284L6.44751 16.2426L10.6902 12L6.44751 7.75733L5.0333 9.17155L7.86172 12L5.0333 14.8284Z"
    fill="currentColor"
  />
  <path d="M15 14H11V16H15V14Z" fill="currentColor" />
  <path
    fill-rule="evenodd"
    clip-rule="evenodd"
    d="M2 2C0.895431 2 0 2.89543 0 4V20C0 21.1046 0.89543 22 2 22H22C23.1046 22 24 21.1046 24 20V4C24 2.89543 23.1046 2 22 2H2ZM22 4H2L2 20H22V4Z"
    fill="currentColor"
  />
</svg>

<svg viewBox="0 0 24 24" xmlns="http://www.w3.org/2000/svg"><g><path d="M5.03 14.82l1.41 1.41 4.24-4.25 -4.25-4.25 -1.42 1.41 2.82 2.82L5 14.78Z"/><path d="M15 14h-4v2h4v-2Z"/><path fill-rule="evenodd" d="M2 2C.89 2 0 2.89 0 4v16c0 1.1.89 2 2 2h20c1.1 0 2-.9 2-2V4c0-1.11-.9-2-2-2H2Zm20 2H2v16h20V4Z"/></g></svg>
